symbols/web/fiber_new/materialsymbolsoutlined/fiber_new_wght300gradN25fill1_20px.svg

<svg xmlns="http://www.w3.org/2000/svg" height="20" width="20"><path d="M3.208 12.292h.854v-3l2.126 3h.833V7.708h-.875v3l-2.063-3h-.875Zm4.834 0h3.02v-.813H9.021v-1.021h2.041v-.875H9.021V8.542h2.041v-.834h-3.02Zm4.791 0h3.229q.292 0 .49-.188.198-.187.198-.458V7.708h-.854v3.604h-1.021V8.5H14v2.812h-1.021V7.708h-.854v3.917q0 .292.208.479.209.188.5.188Zm-9.916 3.812q-.625 0-1.063-.437-.437-.438-.437-1.063V5.396q0-.625.437-1.063.438-.437 1.063-.437h14.166q.625 0 1.063.437.437.438.437 1.063v9.208q0 .625-.437 1.063-.438.437-1.063.437Z"/></svg>

<svg xmlns="http://www.w3.org/2000/svg" height="20" width="20"><path d="M3.208 12.292H4.062V9.292L6.188 12.292H7.021V7.708H6.146V10.708L4.083 7.708H3.208ZM8.042 12.292H11.062V11.479H9.021V10.458H11.062V9.583H9.021V8.542H11.062V7.708H8.042ZM12.833 12.292H16.062Q16.354 12.292 16.552 12.104Q16.75 11.917 16.75 11.646V7.708H15.896V11.312H14.875V8.5H14V11.312H12.979V7.708H12.125V11.625Q12.125 11.917 12.333 12.104Q12.542 12.292 12.833 12.292ZM2.917 16.104Q2.292 16.104 1.854 15.667Q1.417 15.229 1.417 14.604V5.396Q1.417 4.771 1.854 4.333Q2.292 3.896 2.917 3.896H17.083Q17.708 3.896 18.146 4.333Q18.583 4.771 18.583 5.396V14.604Q18.583 15.229 18.146 15.667Q17.708 16.104 17.083 16.104Z"/></svg>
